X:1
T:Beata Nobis Gaudia, LM
T:Beata Nobis Gaudia, LM
T:Psalterium Chorale, 1510
T:Public Domain Courtesy of the Cyber Hymnal™
C:Psalterium Chorale, 1510
Z:Public Domain
Z:Courtesy of the Cyber Hymnal™
%%score ( 1 2 ) ( 3 4 )
L:1/8
Q:1/4=115
M:none
K:F
V:1 treble 
V:2 treble 
V:3 bass 
V:4 bass 
V:1
 [Fc]2 [EA]2 F2 | (G2 A2 B2 A2) (G2 F2) [B,D]2 [CE]2 | [A,F]4 F2 A2 B2 | %3
 [Fc]2 ([Ad]2 c2 =B2) [Ec]2 [Gd]2 | (e2 d2 !fermata!c2) | [Gc]2 (d2 e2 [Ff]2) [Gc]2 | %6
 [FA]2 F2 (B2 A2) [EG]2 | (A2 G2) !fermata![A,F]2 | G2 D2 F2 | F2 (F2 E2) (G2 A2 B2 A2) (G2 F2) | %10
 [CF]6 |] %11
V:2
 x4 F2 | D8 D4 x4 | x4 F6- | x4 G4 x4 | E6 | x2 G4 x4 | x2 F2 D4 x2 | E4 x2 | D6 | C6 D8 E4 | x6 |] %11
V:3
 [F,A,]2 [C,C]2 [D,A,]2 | [G,B,]8 [D,A,]4 G,4 | [F,,F,]4 A,2 C2 B,2 | [F,A,]2 D6 [A,C]2 [G,=B,]2 | %4
 !fermata![C,G,]6 | [CE]2 ([B,D]4 [A,C]2) [E,C]2 | [F,C]2 [D,D]2 [B,,G,]4 [C,E,]2 | %7
 [A,,E,]4 !fermata![D,F,]2 | B,4 A,2- | A,2 G,4 [G,B,]8 [C,G,C]4 | [F,A,]6 |] %11
V:4
 x6 | x12 G,,2 C,2 | x4 F,6 | x2 (F,2 G,4) x4 | x6 | x10 | x10 | x6 | B,,6 | C,6 x12 | x6 |] %11

